img/plus.svg

<svg fill="none" height="20" viewBox="0 0 20 20" width="20" xmlns="http://www.w3.org/2000/svg"><path d="m3.71582 9.71191c0-.30761.10742-.56884.32227-.78369.21972-.21972.48339-.32959.79101-.32959h4.06494v-4.05761c0-.30762.10742-.56885.32227-.7837.21484-.21972.47607-.32959.78369-.32959.3076 0 .5688.10987.7837.32959.2197.21485.3296.47608.3296.7837v4.05761h4.0649c.3028 0 .5615.10987.7764.32959.2197.21485.3296.47608.3296.78369 0 .30759-.1099.57129-.3296.79099-.2149.2149-.4736.3223-.7764.3223h-4.0649v4.0649c0 .3028-.1099.5616-.3296.7764-.2149.2197-.4761.3296-.7837.3296-.30762 0-.56885-.1099-.78369-.3296-.21485-.2148-.32227-.4736-.32227-.7764v-4.0649h-4.06494c-.30762 0-.57129-.1074-.79101-.3223-.21485-.2197-.32227-.4834-.32227-.79099z" fill="#2c2e2c"/></svg>

<svg width="20" height="20" viewBox="0 0 20 20" fill="none" xmlns="http://www.w3.org/2000/svg">
<path d="M3.71582 9.71191C3.71582 9.4043 3.82324 9.14307 4.03809 8.92822C4.25781 8.7085 4.52148 8.59863 4.8291 8.59863H8.89404V4.54102C8.89404 4.2334 9.00146 3.97217 9.21631 3.75732C9.43115 3.5376 9.69238 3.42773 10 3.42773C10.3076 3.42773 10.5688 3.5376 10.7837 3.75732C11.0034 3.97217 11.1133 4.2334 11.1133 4.54102V8.59863H15.1782C15.481 8.59863 15.7397 8.7085 15.9546 8.92822C16.1743 9.14307 16.2842 9.4043 16.2842 9.71191C16.2842 10.0195 16.1743 10.2832 15.9546 10.5029C15.7397 10.7178 15.481 10.8252 15.1782 10.8252H11.1133V14.8901C11.1133 15.1929 11.0034 15.4517 10.7837 15.6665C10.5688 15.8862 10.3076 15.9961 10 15.9961C9.69238 15.9961 9.43115 15.8862 9.21631 15.6665C9.00146 15.4517 8.89404 15.1929 8.89404 14.8901V10.8252H4.8291C4.52148 10.8252 4.25781 10.7178 4.03809 10.5029C3.82324 10.2832 3.71582 10.0195 3.71582 9.71191Z" fill="#2C2E2C"/>
</svg>
